static/fa/svgs/solid/bowl-food.svg

<svg xmlns="http://www.w3.org/2000/svg" viewBox="0 0 576 512"><!--! Font Awesome Free 6.1.1 by @fontawesome - https://fontawesome.com License - https://fontawesome.com/license/free (Icons: CC BY 4.0, Fonts: SIL OFL 1.1, Code: MIT License) Copyright 2022 Fonticons, Inc.--><path d="M96 128h1.6c7.4-36.51 39.7-64 78.4-64 14.1 0 28.1 4.1 40.9 11.25C230.2 49.55 257.1 32 288 32c30.9 0 57.8 17.56 71.1 43.25C371 68.1 385 64 400 64c38.7 0 70.1 27.49 78.4 64h1.6c35.3 0 64 28.7 64 64 0 11.7-3.1 22.6-8.6 32H40.56c-5.44-9.4-8.56-20.3-8.56-32 0-35.3 28.65-64 64-64zM16 283.4c0-15.1 12.28-27.4 27.43-27.4H532.6c15.1 0 27.4 12.3 27.4 27.4 0 72.9-47.4 134.8-113.1 156.4.7 2.6 1.1 5.4 1.1 8.2 0 17.7-14.3 32-32 32H160c-17.7 0-32-14.3-32-32 0-2.8.4-5.6 1.1-8.2C63.4 418.2 16 356.3 16 283.4z"/></svg>

<svg xmlns="http://www.w3.org/2000/svg" viewBox="0 0 576 512"><!--! Font Awesome Free 6.1.1 by @fontawesome - https://fontawesome.com License - https://fontawesome.com/license/free (Icons: CC BY 4.0, Fonts: SIL OFL 1.1, Code: MIT License) Copyright 2022 Fonticons, Inc. --><path d="M96 128C96.53 128 97.07 128 97.6 128C105 91.49 137.3 64 176 64C190.1 64 204.1 68.1 216.9 75.25C230.2 49.55 257.1 32 288 32C318.9 32 345.8 49.56 359.1 75.25C371 68.1 385 64 400 64C438.7 64 470.1 91.49 478.4 128C478.9 128 479.5 128 480 128C515.3 128 544 156.7 544 192C544 203.7 540.9 214.6 535.4 224H40.56C35.12 214.6 32 203.7 32 192C32 156.7 60.65 128 96 128H96zM16 283.4C16 268.3 28.28 256 43.43 256H532.6C547.7 256 560 268.3 560 283.4C560 356.3 512.6 418.2 446.9 439.8C447.6 442.4 448 445.2 448 448C448 465.7 433.7 480 416 480H160C142.3 480 128 465.7 128 448C128 445.2 128.4 442.4 129.1 439.8C63.4 418.2 16 356.3 16 283.4H16z"/></svg>
